X:1
T:Pa/isti/ Sceichi/n a' Rince
T:Children of the Little Dancing Bush
C:Eoghan O'Sullivan
D:O'Sullivan, Harrington, de Grae, "The Smoky Chimney", 6(b)
S: Deirdre Sullivan & Paul de Grae  irtrad-l 2001-10-9
R:reel
M:4/4
L:1/8
K:Edor
FA||:BEED EFGA|BeeB d2 (3Bcd|efed B2 AG|FDFA dAFA|
BEED EFGA|BeeB d2 cd|efed B2 AG|FAGF EFGA:||
Beed e2 ef|g3 a gfeg|fddc dAFA|dfAd fded|
Beed eBef|gBef gfeg|fddc dBAF|(3GAG (3FGF E2 (3FGA||
Beed e2 ef|g3 a gfeg|fddc dAFA|dfAd fagf|
eB ~B2 gBeg|fdaf gfef|eBBA BdBA|(3GAG (3FGF E2||
